dist/svg/pin-star.svg

<!-- Generated by Trend Micro Style Portal -->
<svg version="1.1" xmlns="http://www.w3.org/2000/svg" width="16" height="16" viewBox="0 0 16 16">
  <title>pin-star</title>
  <path fill="rgb(34,34,34)" d="M14 6c0-3.3-2.7-6-6-6s-6 2.7-6 6c0 1.3 0.4 2.7 1.3 3.7v0l4.7 6.3 4.7-6.3c0.8-1 1.3-2.4 1.3-3.7zM10.6 10l-2.6-1.9-2.6 1.9 1-3.1-2.4-1.9h3l1-3 1 3h3l-2.4 1.9 1 3.1z"></path>
</svg>

<svg width="16" height="16" viewBox="0 0 16 16" fill="rgb(34, 34, 34)" xmlns="http://www.w3.org/2000/svg"><title>pin-star</title><path d="M14 6C14 2.7 11.3 0 8 0C4.7 0 2 2.7 2 6C2 7.3 2.4 8.7 3.3 9.7L8 16L12.7 9.7C13.5 8.7 14 7.3 14 6ZM10.6 10L8 8.1L5.4 10L6.4 6.9L4 5H7L8 2L9 5H12L9.6 6.9L10.6 10Z" fill="rgb(34, 34, 34)" fill-opacity="1.00"/></svg>
